X: 3
T: Missa L'homme arm\'e / Credo
N: Derived from Tin1001c-Missa_Lhomme_arme-Credo.krn
C: Johannes Tinctoris
%%abc-version 2.0
%%abcx-abcm2ps-target-version 5.9.1 (29 Sep 2008)
%%abc-creator hum2abc beta
%%abcx-conversion-date 2019/02/17 07:34:55
%%abc-edited-by Jesse Rodin
%%abc-edited-by Complete Works (Melin)
%%abcx-initial-encoding-date 2014/06/10/
%%humdrum-veritas 228151039
%%humdrum-veritas-data 2120455808
%%linebreak <none>
%%barnumbers 0
L: 1/4
M: 3/1
Q: 1/2=120
%%staves [1 2 3 4]
V: 1 clef=treble
V: 2 clef=treble-8
V: 3 clef=treble-8
V: 4 clef=bass
K: F
[V:1] z12 | 
[V:2] d6g3f/e/f2 | 
[V:3] z12 | 
[V:4] G,8A,4 | 
[V:1] z12 | 
[V:2] g6e3fed/c/ | 
[V:3] G8c4 | 
[V:4] G,2E,3D,C,3D,C,B,,/A,,/ | 
[V:1] G12 | 
[V:2] d2G4c4d2 | 
[V:3] B3AGFE4D2 | 
[V:4] G,,4C,6B,,2 | 
[V:1] c8B3A/G/ | 
[V:2] c3de2f2g4 | 
[V:3] E4C4D2_E2 | 
[V:4] A,,8G,,2G,2 | 
[V:1] A4G2E2F3G | 
[V:2] z4G4A4- | 
[V:3] D2d4c2d4- | 
[V:4] F,3E,/D,/E,4D,3E, | 
[V:1] A2B3AG4^F2 | 
[V:2] A2G2B3cA4 | 
[V:3] d4d8 | 
[V:4] F,2G,3F,G,2D,4 | 
[V:1] G4z2G3FED/E/ | 
[V:2] z2d2_e3dcBc2 | 
[V:3] d4G8 | 
[V:4] G,,4C,3D,E,4 | 
[V:1] F3D2CB,A,/G,/A,4 | 
[V:2] z2d3/e/f8 | 
[V:3] d8d4 | 
[V:4] D,12 | 
[V:1] G,12 | 
[V:2] g3e2dcBA3G/A/ | 
[V:3] c8c4 | 
[V:4] E,8F,4 | 
[V:1] z4G4A4 | 
[V:2] B2d3cBA/B/ c/B/A/G/A2 | 
[V:3] B2GABcd2A2c2 | 
[V:4] G,2B,3A,G,2^F,3E,/F,/ | 
[V:1] B8c3B/A/ | 
[V:2] G2zg2f/e/d2e3f | 
[V:3] B2G2G4z4 | 
[V:4] G,4z4C,4 | 
[V:1] B2G3FE2D4 | 
[V:2] g2e3dcB/c/d=B2A | 
[V:3] G8G4 | 
[V:4] G,,2C,6G,,2G,2 | 
[V:1] C8z4 | 
[V:2] c3BAG/F/E2F3E/F/ | 
[V:3] A3GF2c4=B2 | 
[V:4] z2F,3E,C,2D,4 | 
[V:1] E2G3FE3FED/C/ | 
[V:2] G4z2g3agf/e/ | 
[V:3] c8G4 | 
[V:4] C,12 | 
[V:1] B,CD3CC4=B,2 | 
[V:2] d2Bcd2_e2d4 | 
[V:3] z2G4G2G2G2 | 
[V:4] z2G,,2B,,2C,2G,,4 | 
[V:1] C3DEFD2G3A | 
[V:2] c4z4z4 | 
[V:3] CDEFG3ABcd2 | 
[V:4] z2C,3A,,B,,2G,,2G,2- | 
[V:1] BcA3GG4^F2 | 
[V:2] z12 | 
[V:3] G2A2B2G2D4 | 
[V:4] G,E,F,D,G,2B,2A,4 | 
[V:1] G12 | 
[V:2] z4g4e3f | 
[V:3] E3FG4z4 | 
[V:4] z2G,4E,3F,G,2 | 
[V:1] z12 | 
[V:2] g3/f/dc/d/e2c3=B/A/=B2 | 
[V:3] z12 | 
[V:4] C,2G,3F,E,2D,4 | 
[V:1] G4G2G3FD2- | 
[V:2] c4z2G3ABc | 
[V:3] z2C3DEFG3F | 
[V:4] C,8G,,3A,, | 
[V:1] DEFGA2B2A4 | 
[V:2] d3c/B/A2G2A4 | 
[V:3] D3EF2DEFGA2 | 
[V:4] B,,C,D,4G,,2D,E,F,2 | 
[V:1] z2G2A3Bc4 | 
[V:2] G2c3/B/d4c2A2 | 
[V:3] B2G3FF3EC2 | 
[V:4] G,2E,2D,3C,/B,,/A,,4 | 
[V:1] B2G3FEDD4 | 
[V:2] B3cd2efg4 | 
[V:3] D4G3AB2G2- | 
[V:4] G,,12- | 
[V:1] E2D4G3AB2 | 
[V:2] g3f/e/d4d4 | 
[V:3] G2B3AG4G2 | 
[V:4] G,,12 | 
[V:1] A2c3BA4G2 | 
[V:2] c3BAGc3B/A/B2 | 
[V:3] A4F4G4 | 
[V:4] z12 | 
[V:1] A4z4z4 | 
[V:2] A3Bcdc3=B=BA | 
[V:3] F2A4G2F4 | 
[V:4] D,2F,4E,2D,4 | 
[V:1] G4G2E3FG2- | 
[V:2] c2z2e3fg2e2 | 
[V:3] G2C2C8 | 
[V:4] E,2G,3F,G,2E,2C,2 | 
[V:1] GFD2G3AB2B2 | 
[V:2] d8d4 | 
[V:3] z4G6G2 | 
[V:4] G,,8G,,4 | 
[V:1] c3BG2A2GFED | 
[V:2] c12 | 
[V:3] G6ABc2F2 | 
[V:4] C,4z4z4 | 
[V:1] E4D8 | 
[V:2] z4F4F3E/F/ | 
[V:3] E3F/G/A4D4 | 
[V:4] A,,4A,6A,2 | 
[V:1] z4A8 | 
[V:2] G4A3GA4 | 
[V:3] E2G4^FE^F4 | 
[V:4] G,3F,/E,/D,8 | 
[V:1] B4B2G3FED | 
[V:2] G4z4z4 | 
[V:3] G8z4 | 
[V:4] G,,3A,,B,,2C,2G,,2C,2- | 
[V:1] G3FD2G,3A,B,C | 
[V:2] z12 | 
[V:3] G3AB2c2G3A | 
[V:4] C,B,,G,,2z2C,D,E,F,G,2- | 
[V:1] D3EF2D3^CC=B, | 
[V:2] z12 | 
[V:3] B4A2A4G2 | 
[V:4] G,F,D,4F,2E,4 | 
[V:1] D4C2B,2A,4 | 
[V:2] z12 | 
[V:3] A4F2G2D4 | 
[V:4] D,2F,G,A,2B,G,2^F,F,E, | 
[V:1] z2G,2B,3CD2G,2 | 
[V:2] G2B3cd2G2d2 | 
[V:3] z4G4B2B2 | 
[V:4] G,4G,,8 | 
[V:1] z2G3AB3AGF/G/ | 
[V:2] _e3d/c/d4B4 | 
[V:3] c4B3AGFG2 | 
[V:4] C,4G,,8 | 
[V:1] A2D3EF2G2C2 | 
[V:2] A2Bd2cBAc3/d/ec | 
[V:3] F4F2F2E2G2- | 
[V:4] D,2B,,3C,D,2C,4 | 
[V:1] z2D3CD2E2C2- | 
[V:2] d2B3AB2c3/d/ef | 
[V:3] G2G2G4G2G2 | 
[V:4] G,,8C,3D, | 
[V:1] CDEFG2c3=B=BA | 
[V:2] g2e2c2e2d4 | 
[V:3] G8z2G2- | 
[V:4] E,D,G,2E,2C,2G,4 | 
[V:1] c4z2G3FED | 
[V:2] c2z2g3fede2- | 
[V:3] GFEDE3FG2G2 | 
[V:4] C,12 | 
[V:1] E3FG2G2C4 | 
[V:2] efg2g2c3dec | 
[V:3] C8z2c2 | 
[V:4] G,2E,3D,C,B,,A,,4 | 
[V:1] G8A4 | 
[V:2] d2e3dcBA4 | 
[V:3] B2c2G4c4 | 
[V:4] G,,2C,3D,E,2F,4 | 
[V:1] B2GA2GG4^F2 | 
[V:2] GB2cd2G2A4 | 
[V:3] B3AB2c2d4 | 
[V:4] G,3F,D,2E,2D,4 | 
[V:1] G4z2D4E2 | 
[V:2] G4z4z4 | 
[V:3] z2D2E2D2G3A | 
[V:4] G,,12- | 
[V:1] D2G3FD3CB,2 | 
[V:2] d2e2d2g3fd2- | 
[V:3] B6G2G4 | 
[V:4] G,,4z2G,,3A,,B,,C, | 
[V:1] A,3DC2D4^C2 | 
[V:2] dc/B/A4A2A4 | 
[V:3] F6F2E4 | 
[V:4] D,4z2D,2A,,4 | 
[V:1] D6CB,A,4 | 
[V:2] F2A3Bc4d2 | 
[V:3] D4F4z4 | 
[V:4] A,2F,3G,A,2F,3E, | 
[V:1] z2B,3A,G,2G2B2- | 
[V:2] B2G2g3fedd2- | 
[V:3] d3dd2c2c2d2 | 
[V:4] G,2G,,4C,3B,,G,,2 | 
[V:1] BAG2A2F2E4 | 
[V:2] d2e2f2d4^c2 | 
[V:3] B4A4z4 | 
[V:4] G,3F,D,4A,4 | 
[V:1] D4(3D4E4F4 | 
[V:2] d4(3G6A4B2- | 
[V:3] z12 | 
[V:4] D,4z4z4 | 
[V:1] (3:2:6G4A2B2G4c4B2 | 
[V:2] (3:2:6B2c4d2e2c4d4 | 
[V:3] z12 | 
[V:4] z12 | 
[V:1] (3:2:9c3B A GB2A3GG4^F2 | 
[V:2] (3:2:7c2A4G2c2d2B2A4 | 
[V:3] z12 | 
[V:4] z12 | 
[V:1] G4z4G4- | 
[V:2] G4d2g4e2- | 
[V:3] G8G4 | 
[V:4] G,,6G,,4C,2- | 
[V:1] G2c3BA3BA2 | 
[V:2] efg2e2fa2gef | 
[V:3] c8c4 | 
[V:4] C,4C,2F,3G,A,F, | 
[V:1] G3/F/D4C2C3B,/C/ | 
[V:2] d2g2f3a3/g/^f/e/^f2 | 
[V:3] B4A8 | 
[V:4] G,4z4z4 | 
[V:1] D6D3CD2 | 
[V:2] g8z4 | 
[V:3] G12- | 
[V:4] z2D3CD2B,2G,2 | 
[V:1] B,2G,4G3FG2 | 
[V:2] d3cd2B2G2d2 | 
[V:3] G12 | 
[V:4] z2B,3G,B,3/C/D2B,2 | 
[V:1] A3GA2F2DEFG | 
[V:2] z2c2A3GABc2- | 
[V:3] z12 | 
[V:4] A,3/G,/A,2F,2D,E,F,G,A,2- | 
[V:1] A2B3AA4G2 | 
[V:2] c2d4c2B4 | 
[V:3] z4z4d4- | 
[V:4] A,2G,3E,F,2G,4 | 
[V:1] A4z2F3EF2 | 
[V:2] A12 | 
[V:3] d4d8 | 
[V:4] D,12 | 
[V:1] G3FEDE3^C2=B, | 
[V:2] z2B3AG2g2e2 | 
[V:3] G12 | 
[V:4] E,2G,3F,E,D,E,4 | 
[V:1] D4z2F3GA2- | 
[V:2] f6d3efg | 
[V:3] z4d8 | 
[V:4] z2D,2B,,3C,D,2D,2- | 
[V:1] A2B2c2A3GA2 | 
[V:2] a2g2ef3/g/a3/g/ef2 | 
[V:3] d4c8 | 
[V:4] D,E,/F,/G,2A,8 | 
[V:1] B2G2A3F3/G/A^FE | 
[V:2] g2d3edc/B/A2d2- | 
[V:3] B4A8 | 
[V:4] G,4D,8 | 
[V:1] G12 ||  
[V:2] dcBAB2G2[B4d4] ||  
[V:3] G12 ||  
[V:4] G,,12 ||  
[V:1]  [K:F] [K:clef=treble][M:2/1]z4G4- | 
[V:2]  [K:F] [K:clef=treble-8][M:2/1]d8 | 
[V:3]  [K:F] [K:clef=treble-8][M:2/1]G6A2 | 
[V:4]  [K:F] [K:clef=bass][M:2/1]G,4B,4- | 
[V:1] G4G2AB | 
[V:2] d2efg4 | 
[V:3] B2c2d4 | 
[V:4] B,2A,2G,4 | 
[V:1] c4c2B2- | 
[V:2] g2f3ed2- | 
[V:3] c2A4B2 | 
[V:4] C,2F,4G,2 | 
[V:1] BAG4^F2 | 
[V:2] d2c2d4 | 
[V:3] G4A4 | 
[V:4] _E,4D,4 | 
[V:1] G4z4 | 
[V:2] z4a4 | 
[V:3] G4z2d2- | 
[V:4] z2G,2F,3E, | 
[V:1] d4d2d2 | 
[V:2] a2a2d4 | 
[V:3] def3edc | 
[V:4] D,4D,4 | 
[V:1] G4G4 | 
[V:2] d4d4 | 
[V:3] B2G2B3c | 
[V:4] G,4G,2G,2- | 
[V:1] G4z4 | 
[V:2] z4a4 | 
[V:3] d4c2A2- | 
[V:4] G,A,B,2A,2D,2- | 
[V:1] d4d2d2- | 
[V:2] a2a4a2 | 
[V:3] AGFED4 | 
[V:4] D,E,F,G,A,4 | 
[V:1] d2d2c2B2- | 
[V:2] g2f3ed2- | 
[V:3] G2D2A2B2 | 
[V:4] z2A,2F,2G,2 | 
[V:1] BAG4^F2 | 
[V:2] d2c2d4 | 
[V:3] G4A4 | 
[V:4] _E,4D,4 | 
[V:1] G4z4 | 
[V:2] z4d4 | 
[V:3] G8 | 
[V:4] z2G,3A,B,2- | 
[V:1] G4G4 | 
[V:2] d4c4 | 
[V:3] z4E4 | 
[V:4] B,A,B,2G,4 | 
[V:1] F4G4 | 
[V:2] d4B4 | 
[V:3] D4d2d2- | 
[V:4] A,4G,4 | 
[V:1] E4D4 | 
[V:2] A4z4 | 
[V:3] d2c2d4 | 
[V:4] z2A,2B,4- | 
[V:1] z4G4 | 
[V:2] d4d2d2 | 
[V:3] d2B3AB2 | 
[V:4] B,2G,3F,G,2 | 
[V:1] G2G2F4 | 
[V:2] c4d4 | 
[V:3] G4A4 | 
[V:4] E,4D,4 | 
[V:1] G4E4 | 
[V:2] B4A4 | 
[V:3] G2ABc4 | 
[V:4] G,,4z4 | 
[V:1] D4G4 | 
[V:2] d4e4 | 
[V:3] B4G4 | 
[V:4] G,2G,2C,4 | 
[V:1] A4G2F2- | 
[V:2] d2c3BA2- | 
[V:3] F3E/D/E2F2 | 
[V:4] z4C,2D,2 | 
[V:1] FED4^C2 | 
[V:2] A2G2A4- | 
[V:3] D4E4 | 
[V:4] B,,4A,,4 | 
[V:1] D8 | 
[V:2] A4z4 | 
[V:3] D8 | 
[V:4] z4A,4 | 
[V:1] z4G4- | 
[V:2] d8 | 
[V:3] z2G4A2 | 
[V:4] B,4B,4- | 
[V:1] G4G2AB | 
[V:2] d2efg4- | 
[V:3] B2c2d4 | 
[V:4] B,2A,2G,4 | 
[V:1] c6B2- | 
[V:2] g2f3ed2- | 
[V:3] c2A4B2 | 
[V:4] C,2F,4G,2 | 
[V:1] BAG4^F2 | 
[V:2] d2c2d4 | 
[V:3] G4A4 | 
[V:4] _E,4D,4 | 
[V:1] G4z4 | 
[V:2] z4a4 | 
[V:3] G4z2d2- | 
[V:4] z2G,2F,3E, | 
[V:1] d4d4 | 
[V:2] a4d4 | 
[V:3] def3edc | 
[V:4] D,4D,4 | 
[V:1] G4z4 | 
[V:2] z4a4 | 
[V:3] B2G2c2A2- | 
[V:4] G,2B,2A,2D,2- | 
[V:1] d4d4 | 
[V:2] a4a4 | 
[V:3] AGFED4 | 
[V:4] D,E,F,G,A,4 | 
[V:1] d4c2B2- | 
[V:2] g2f3ed2- | 
[V:3] G2D2A2B2 | 
[V:4] z2A,2F,2G,2 | 
[V:1] BAG4^F2 | 
[V:2] d2c2d4- | 
[V:3] G4A4 | 
[V:4] _E,4D,4 | 
[V:1] G8 ||  
[V:2] d8 ||  
[V:3] G8 ||  
[V:4] G,,8 ||  
[V:1]  [K:F] [K:clef=treble][M:2/1]z8 | 
[V:2]  [K:F] [K:clef=treble-8][M:2/1]d8 | 
[V:3]  [K:F] [K:clef=treble-8][M:2/1]A8 | 
[V:4]  [K:F] [K:clef=bass][M:2/1]D,8- | 
[V:1] z8 | 
[V:2] d6cB | 
[V:3] B4A4 | 
[V:4] D,8 | 
[V:1] z8 | 
[V:2] A4B2c2 | 
[V:3] d6c2 | 
[V:4] D,4G,4- | 
[V:1] z8 | 
[V:2] d2cBc2A2- | 
[V:3] B2AGA2d2- | 
[V:4] G,4F,4 | 
[V:1] z8 | 
[V:2] A2G2G2FG | 
[V:3] d2^c2^c2=B2 | 
[V:4] E,8 | 
[V:1] F4A4- | 
[V:2] A2F4f2- | 
[V:3] d8- | 
[V:4] D,8 | 
[V:1] A2G2F2ED | 
[V:2] f2e2d2cB | 
[V:3] d8 | 
[V:4] z8 | 
[V:1] E2F2E2A2- | 
[V:2] c2d2e2f2- | 
[V:3] z8 | 
[V:4] A,8 | 
[V:1] A2GFE4 | 
[V:2] f2ed^c3=B | 
[V:3] z8 | 
[V:4] A,4A,4 | 
[V:1] D6CB, | 
[V:2] d8 | 
[V:3] A4F4- | 
[V:4] D,8 | 
[V:1] A,4z2A,2 | 
[V:2] z8 | 
[V:3] F2G2A2F2 | 
[V:4] D,8 | 
[V:1] B,4C3D | 
[V:2] z8 | 
[V:3] G4F2A2- | 
[V:4] z4A,4- | 
[V:1] E2F3GA2 | 
[V:2] z8 | 
[V:3] AGFED4 | 
[V:4] A,4A,4 | 
[V:1] F3EG4 | 
[V:2] z8 | 
[V:3] D4d2B2- | 
[V:4] A,4G,4- | 
[V:1] E2DEF2D2- | 
[V:2] z8 | 
[V:3] B2AGA4- | 
[V:4] G,2F,2D,4 | 
[V:1] D2^C2C2=B,C | 
[V:2] z8 | 
[V:3] A2GFG4 | 
[V:4] E,8 | 
[V:1] D8 | 
[V:2] d4A2d2- | 
[V:3] A6B2- | 
[V:4] D,8- | 
[V:1] z4A4 | 
[V:2] d2cBA4 | 
[V:3] B2AG^F3E | 
[V:4] D,8 | 
[V:1] B6c2- | 
[V:2] z2G4A2- | 
[V:3] G4z2F2- | 
[V:4] z8 | 
[V:1] cBAGF3G | 
[V:2] ABc2d3c | 
[V:3] FGA2D3E | 
[V:4] z8 | 
[V:1] A2D3EFG | 
[V:2] A2Bcd3e | 
[V:3] F2GABcd2- | 
[V:4] z8 | 
[V:1] A2G4^F2 | 
[V:2] f2d4c2 | 
[V:3] dcB2A4 | 
[V:4] z8 | 
[V:1] G8 | 
[V:2] d4z2G2- | 
[V:3] G8- | 
[V:4] z4G,4 | 
[V:1] z8 | 
[V:2] G2c4d2 | 
[V:3] G8 | 
[V:4] C,6B,,2 | 
[V:1] c8 | 
[V:2] e2c3de2- | 
[V:3] z8 | 
[V:4] A,,8- | 
[V:1] c4B4- | 
[V:2] e2f2g4- | 
[V:3] z8 | 
[V:4] A,,4G,,4- | 
[V:1] B4B4 | 
[V:2] g2fed4 | 
[V:3] z8 | 
[V:4] G,,8 | 
[V:1] c4B2G2- | 
[V:2] c4d2e2- | 
[V:3] z8 | 
[V:4] A,,4B,,2C,2- | 
[V:1] G2B2A4 | 
[V:2] edg4^f2 | 
[V:3] z8 | 
[V:4] C,B,,G,,2D,4 | 
[V:1] G8 | 
[V:2] g4z4 | 
[V:3] G4E3F | 
[V:4] z2E,3F,G,2 | 
[V:1] z8 | 
[V:2] g8- | 
[V:3] G2C2E3F | 
[V:4] C,2E,3F,G,2- | 
[V:1] z8 | 
[V:2] g4f4- | 
[V:3] G4D4- | 
[V:4] G,A,B,2A,2D2- | 
[V:1] z8 | 
[V:2] f4f4 | 
[V:3] D4D4 | 
[V:4] DCB,2A,4 | 
[V:1] z4G,4 | 
[V:2] g4e4 | 
[V:3] E4C4 | 
[V:4] G,4z4 | 
[V:1] B,4B,2D2- | 
[V:2] d8 | 
[V:3] G8- | 
[V:4] G,,8 | 
[V:1] DCB,A,B,4 | 
[V:2] z4g4 | 
[V:3] G8 | 
[V:4] G,,4G,,4 | 
[V:1] A,3B,C2D2 | 
[V:2] a8 | 
[V:3] F4A4 | 
[V:4] D,4A,,3B,, | 
[V:1] E4D4- | 
[V:2] g4f4 | 
[V:3] z4A4 | 
[V:4] C,4D,4 | 
[V:1] D2^C=B,C4 | 
[V:2] e8 | 
[V:3] A2GFE4 | 
[V:4] A,,8 | 
[V:1] D6A,2- | 
[V:2] d8 | 
[V:3] F6D2 | 
[V:4] D,8 | 
[V:1] A,2D3CDE | 
[V:2] z4A4 | 
[V:3] D8 | 
[V:4] z8 | 
[V:1] F3GA2B2- | 
[V:2] d3ef2d2- | 
[V:3] D8 | 
[V:4] z8 | 
[V:1] B2AG^F3E | 
[V:2] dcB2A4 | 
[V:3] D4D4 | 
[V:4] z8 | 
[V:1] G8 | 
[V:2] G2B3cd2- | 
[V:3] G8 | 
[V:4] z8 | 
[V:1] z4A4 | 
[V:2] d2_e2d2=ef | 
[V:3] G4F4 | 
[V:4] z8 | 
[V:1] G4GFED | 
[V:2] gfed^c3=B | 
[V:3] E8 | 
[V:4] z8 | 
[V:1] F6ED | 
[V:2] d4f4 | 
[V:3] D8 | 
[V:4] z4A,4 | 
[V:1] C4C4 | 
[V:2] e4e4 | 
[V:3] z4A4 | 
[V:4] A,4A,4 | 
[V:1] D4F4- | 
[V:2] d4z4 | 
[V:3] A4A4 | 
[V:4] D,8 | 
[V:1] F2E2F2G2 | 
[V:2] d6cB | 
[V:3] D8 | 
[V:4] z4A,4- | 
[V:1] A6GF | 
[V:2] c8 | 
[V:3] z4A4- | 
[V:4] A,2G,2F,2E,D, | 
[V:1] E2D2E4 | 
[V:2] z8 | 
[V:3] A4A4 | 
[V:4] C,2D,4^C,2 | 
[V:1] D6CB, | 
[V:2] F6G2 | 
[V:3] A8 | 
[V:4] D,8 | 
[V:1] C2D2E4 | 
[V:2] A3Bc4 | 
[V:3] A4A4 | 
[V:4] A,,6B,,C, | 
[V:1] F4G3F | 
[V:2] F2GAB4 | 
[V:3] A4G4- | 
[V:4] D,4G,,4 | 
[V:1] E2D2D4- | 
[V:2] c4A4- | 
[V:3] G4F4 | 
[V:4] C,4D,4 | 
[V:1] D2^C2C2=B,C | 
[V:2] A2G2A4 | 
[V:3] E8 | 
[V:4] A,,8 | 
[V:1] D8 | 
[V:2] F4F4 | 
[V:3] D8- | 
[V:4] z4B,,4 | 
[V:1] z4A,4 | 
[V:2] F8 | 
[V:3] D8 | 
[V:4] B,,2C,2D,4 | 
[V:1] B,4B,4 | 
[V:2] G6AB | 
[V:3] z4G4 | 
[V:4] G,,8 | 
[V:1] A,2C3B,A,G, | 
[V:2] c4F4 | 
[V:3] F2A3GFE | 
[V:4] z8 | 
[V:1] B,2C2A,4 | 
[V:2] z2F3GA2 | 
[V:3] G2A2F4 | 
[V:4] z4D,4 | 
[V:1] z2G,3A,B,2 | 
[V:2] B2c4d2- | 
[V:3] G4z2D2- | 
[V:4] G,,2C,4B,,2 | 
[V:1] A,2D3EF2 | 
[V:2] dcA2B2c2- | 
[V:3] DEF2G2A2- | 
[V:4] D,4z4 | 
[V:1] E2G3AB2 | 
[V:2] c2d2efg2- | 
[V:3] A2B2c2d2- | 
[V:4] z4z2G,2- | 
[V:1] A2c3BAG | 
[V:2] g2a2e2f2- | 
[V:3] dcA2c3B | 
[V:4] G,2F,2A,2F,2- | 
[V:1] c4B3A/B/ | 
[V:2] f2e2g2f2- | 
[V:3] AGc2d4 | 
[V:4] F,G,A,2G,2D,2 | 
[V:1] AGG4^F2 | 
[V:2] fed3cA2 | 
[V:3] c2B2A4 | 
[V:4] F,2G,2D,4 | 
[V:1] G8- | 
[V:2] B6c2 | 
[V:3] G8- | 
[V:4] G,,8- | 
[V:1] G8 ||  
[V:2] d8 ||  
[V:3] G8 ||  
[V:4] G,,8 ||  
[V:1]  [K:F] [K:clef=treble][M:2/1]G8 | 
[V:2]  [K:F] [K:clef=treble-8][M:2/1]z8 | 
[V:3]  [K:F] [K:clef=treble-8][M:2/1]G4GFED | 
[V:4]  [K:F] [K:clef=bass][M:2/1]G,,6A,,B,, | 
[V:1] G4G4 | 
[V:2] z8 | 
[V:3] E2D4G2- | 
[V:4] C,2B,,3A,,G,,2 | 
[V:1] c8 | 
[V:2] z8 | 
[V:3] G2^F2^F2E^F | 
[V:4] A,,4A,,4 | 
[V:1] B6AB | 
[V:2] (3:2:2G8G4 | 
[V:3] G8 | 
[V:4] G,,4G,4 | 
[V:1] A2G2G4- | 
[V:2] (3:2:2c8c4 | 
[V:3] z8 | 
[V:4] F,2C,3D,E,F, | 
[V:1] G2^FEF4 | 
[V:2] (3:2:2B4A8 | 
[V:3] d4d4 | 
[V:4] G,2D,3C,D,2 | 
[V:1] G4z4 | 
[V:2] (3:2:1G12 | 
[V:3] B2G4FE | 
[V:4] _E,6D,C, | 
[V:1] D4D4 | 
[V:2] (3:2:1z12 | 
[V:3] F4G4- | 
[V:4] B,,3A,,G,,4- | 
[V:1] G,8 | 
[V:2] (3:2:2d4d8 | 
[V:3] G2A2B3c | 
[V:4] G,,8 | 
[V:1] G4B4 | 
[V:2] (3:2:1G12 | 
[V:3] d6G2- | 
[V:4] G,,8 | 
[V:1] B2c2B2AG | 
[V:2] (3z4z4d4 | 
[V:3] G2A2B4 | 
[V:4] z4G,4 | 
[V:1] A6F2 | 
[V:2] (3:2:2d4d8 | 
[V:3] A8 | 
[V:4] D,8 | 
[V:1] F8 | 
[V:2] (3:2:2d4d8 | 
[V:3] (3A6G2A4 | 
[V:4] (3D,6E,2F,4 | 
[V:1] z8 | 
[V:2] (3:2:2d4c8 | 
[V:3] (3B4A4F4 | 
[V:4] (3:2:2G,4A,8 | 
[V:1] z4A4 | 
[V:2] (3:2:2B4A8 | 
[V:3] (3:2:2G4D8 | 
[V:4] (3G,4^F,6E,2 | 
[V:1] B6AG | 
[V:2] [M:2/1]G8 | 
[V:3] d8 | 
[V:4] G,4z4 | 
[V:1] B4A2G2- | 
[V:2] g4f2e2 | 
[V:3] z8 | 
[V:4] G,4D,2E,2- | 
[V:1] G2c4=B2 | 
[V:2] c2e2d4 | 
[V:3] z8 | 
[V:4] E,D,C,2G,4 | 
[V:1] c8 | 
[V:2] c8- | 
[V:3] G4C3D | 
[V:4] C,4z4 | 
[V:1] z8 | 
[V:2] c8 | 
[V:3] E2F2G2A2 | 
[V:4] C,3D,E,2F,2 | 
[V:1] (3:2:2G8G4- | 
[V:2] z8 | 
[V:3] B2cd_e2d2- | 
[V:4] G,2A,B,C2B,2- | 
[V:1] (3:2:2G4F8 | 
[V:2] z8 | 
[V:3] d2cBc4 | 
[V:4] B,2A,G,A,4 | 
[V:1] (3:2:2G4E8 | 
[V:2] (3:2:2g8g4- | 
[V:3] (3d4c4G4 | 
[V:4] (3G,4C,4E,4 | 
[V:1] D8 | 
[V:2] (3:2:2g4f8 | 
[V:3] (3:2:2B4A8 | 
[V:4] (3:2:2G,4D,8 | 
[V:1] z8 | 
[V:2] (3:2:2g4e8 | 
[V:3] (3:2:4B4c6B c | 
[V:4] (3:2:2G,4A,8 | 
[V:1] (3:2:2D8E4- | 
[V:2] (3:2:2d8z4 | 
[V:3] (3d4A4B4 | 
[V:4] (3:2:2D,8G,4 | 
[V:1] (3:2:4E4F4E2D2 | 
[V:2] z8 | 
[V:3] (3:2:2c8B4 | 
[V:4] (3:2:2A,8G,4 | 
[V:1] (3:2:4D6^C2C2=B,2 | 
[V:2] (3:2:2d4e8 | 
[V:3] (3:2:4A6G FG4 | 
[V:4] (3:2:2F,4E,8 | 
[V:1] D8 | 
[V:2] (3f2g2a8 | 
[V:3] (3A4^F6E2 | 
[V:4] D,4z4 | 
[V:1] D6EF | 
[V:2] (3:2:4g6f2e2d2 | 
[V:3] G8 | 
[V:4] G,,8- | 
[V:1] G4GFED | 
[V:2] d4G4 | 
[V:3] z8 | 
[V:4] G,,4C,4- | 
[V:1] E4D4 | 
[V:2] c4d4 | 
[V:3] [M:2/1]G8 | 
[V:4] C,4B,,4 | 
[V:1] E6F2 | 
[V:2] c2A3Bc2 | 
[V:3] c8 | 
[V:4] A,,8 | 
[V:1] G2F4EF | 
[V:2] d4z4 | 
[V:3] (3:2:2B4A8 | 
[V:4] G,,2D,4C,D, | 
[V:1] G4z2E2 | 
[V:2] z2G3FGA | 
[V:3] G8 | 
[V:4] E,2C,3D,E,F, | 
[V:1] D2EFG4 | 
[V:2] B4G2g2- | 
[V:3] z8 | 
[V:4] G,4E,4 | 
[V:1] A4A4 | 
[V:2] g2f2f2ef | 
[V:3] (3:2:2d4d8 | 
[V:4] D,8 | 
[V:1] G4z2D2- | 
[V:2] g4d3e | 
[V:3] G8 | 
[V:4] E,4G,4 | 
[V:1] DEF3EDC | 
[V:2] f3ga4 | 
[V:3] z8 | 
[V:4] F,2D,3E,F,2 | 
[V:1] B,2D3CB,2 | 
[V:2] g2f2d3e | 
[V:3] d8- | 
[V:4] G,2B,3A,G,2 | 
[V:1] A,2G,2A,4 | 
[V:2] f2d3cA2 | 
[V:3] (3:2:2d4d8- | 
[V:4] F,2G,4^F,2 | 
[V:1] (3G,4D6E2 | 
[V:2] (3:2:2B8A4 | 
[V:3] (3:2:2d8d4- | 
[V:4] (3:2:2G,8F,4 | 
[V:1] (3F4G6A2 | 
[V:2] (3A4G4g4- | 
[V:3] d8 | 
[V:4] (3D,4G,6F,2 | 
[V:1] (3:2:5B4c2B2A2G2 | 
[V:2] (3g4e4f4 | 
[V:3] (3:2:2d4c8 | 
[V:4] (3G,4A,4F,4 | 
[V:1] (3:2:4G6^F2F2E2 | 
[V:2] d8 | 
[V:3] (3:2:2B4A8 | 
[V:4] (3:2:2G,4D,8 | 
[V:1] G8- | 
[V:2] (3:2:4B6G2B2c2 | 
[V:3] G8- | 
[V:4] G,,8- | 
[V:1] G8 |]  
[V:2] d8 |]  
[V:3] G8 |]  
[V:4] G,,8 |]  



